X:1
T:Title
%%score { ( 1 3 ) | ( 2 4 ) }
L:1/8
M:4/4
K:Bb
V:1 treble nm="Grand Piano"
V:3 treble 
V:2 bass 
V:4 bass 
V:1
 z4 z2[Q:1/4=100] [B,D]>[CE] | [DF]>[DF] [DF]>[DF] [Fd]>[Fc] [FB]>[FA] | %2
 [EG]>[GB] [FA]>[EG] [DF]2 E>D | C>C C>D E>E A>G | [EG]>[DF] [DF]>[CE] [B,D]2 [B,D]>[CE] | %5
 [DF]>[DF] [DF]>[DF] [Fd]>[Fc] [FB]>[FA] | [Gc]>[GB] [FA]>[EG] [DF]2 [DF]>[DF] | %7
 G>G G>G F>[FB] [Fe]>[Fd] |[M:3/4] [Gd]>[CGc] [DFB]>[CEA] [B,DB]2 |[M:1/4] A>B |[M:4/4] c2 c4 z2 | %11
 [DB]2 [DF]4 z2 | c6 z2 | [Fd]6 z2 | [Ge]2 [EG]4 z2 | [Fd]2 z z/ B,/ B,>B, (3BAB | c6 z2 | %17
[M:3/4] B6 |] %18
V:2
 z4 z2 [B,,F,]>[B,,F,] | [B,,B,]>[B,,B,] [B,,B,]>[B,,B,] [B,,B,]>[C,A,] [D,B,]>[D,B,] | %2
 [E,B,]>[E,B,] [E,B,]>[E,B,] [B,,B,]2 [F,C]>[F,B,] | %3
 [F,A,]>[F,A,] [F,A,]>[F,B,] [F,C]>[F,C] [F,E]>[F,A,E] | %4
 [B,,B,]>[B,,B,] [B,,B,]>[B,,F,] [B,,F,]2 [B,,F,]>[B,,F,] | %5
 [B,,B,]>[B,,B,] [B,,B,]>[B,,B,] [B,,B,]>[C,A,] [D,B,]>[D,B,] | %6
 [E,B,]>[E,B,] [E,B,]>[E,B,] [B,,B,]2 [B,,B,]>[B,,B,] | %7
 [E,B,E]>[E,B,E] [=E,B,_D]>[E,B,D] [F,B,=D]>[D,B,] [C,A,]>[B,,B,] |[M:3/4] [E,B,]>E, F,>F, B,,2 | %9
[M:1/4] C>D |[M:4/4] E->[F,E] E->[F,E-] [F,E]2 F>E | B,,>B,, B,,>B,, B,,2 C>D | [F,A,]2 z2 z4 | %13
 [B,,B,]>B,, B,,>B,, B,,2[K:treble] (3BA_A | z4 z2[K:treble] G2 | %15
 [B,,B,]>[B,,B,] [B,,B,]>B,, B,,>B,, (3DCD | E6 z2 |[M:3/4] z z/ F,/ G,>G, F,2 |] %18
V:3
 x8 | x8 | x8 | x8 | x8 | x8 | x8 | x8 |[M:3/4] x6 |[M:1/4] x2 |[M:4/4] z z/ A,/ z z/ A,/ A,2 d>c | %11
 B,>B, B,>B, B,2 A>B | z z/ A,/ A,>A, A,>F [FB]>[Fc] | z z/ B,/ B,>B, B,2 (3dcd | %14
 z z/ B,/ B,>B, B,>B, (3cBc | z2 [DF]4 z2 | z z/ A,/ A,>A, A,>B (3AG[CEA] | %17
[M:3/4] [B,D]>D E>E D2 |] %18
V:4
 x8 | x8 | x8 | x8 | x8 | x8 | x8 | x8 |[M:3/4] x6 |[M:1/4] x2 | %10
[M:4/4] [F,A,]2 [F,A,]2 z2 [F,A,]2 | x8 | E->[F,E-] [F,E-]>[F,E-] [F,E]>[E,A,] [D,B,]>[C,A,] | %13
 x6[K:treble] x2 | [E,B,]>E, E,>E, E,>E,[K:treble] (3:2:2z2 ^F | x8 | %16
 [F,A,]>F, F,>F, F,>[F,B,D] (3:2:2[F,CE]2 F, |[M:3/4] B,,6 |] %18

